X: 6695
T: Center's Bonnet
R: jig
M: 6/8
K: Dmajor
|:G2B B2c|def B2d|cAA A2c|ecA A2B|
G2B B2c|def B2d|cAA f2e|dBB B3:|
|:d2e fdd|add f2d|cAA A2c|ecA A2c|
d2e fdd|add f2d|cAA f2e|dBB B3:|

